X:528
T: WIE IST DER ABEND SO TRAULICH
N: F1018
O: Europa, Mitteleuropa, Deutschland
R: Erbauungs - Lied, religioes; Tageszeiten - Lied, Abend
M: 6/8
L: 1/16
K: F
c2 | A4A2B3AB2 | c4f2A4
c2 | F3GA2A3Bc2 | G6c4
c2 | A4A2B3AB2 | c4f2A4
c2 | F3GA2c3BGA | F8z2

@@@ Tune index: 5959
